svgs/sharp-light/dial-high.svg

<svg xmlns="http://www.w3.org/2000/svg" viewBox="0 0 576 512"><!--! Font Awesome Pro 6.6.0 by @fontawesome - https://fontawesome.com License - https://fontawesome.com/license (Commercial License) Copyright 2024 Fonticons, Inc. --><path d="M312 8l0 48-48 0 0-48 48 0zM120 72l0 48-48 0 0-48 48 0zm336 0l48 0 0 48-48 0 0-48zM568 264l0 48-48 0 0-48 48 0zM8 264l48 0 0 48L8 312l0-48zM120 456l0 48-48 0 0-48 48 0zm336 0l48 0 0 48-48 0 0-48zM288 272l127 0c-7.9-63.1-61.7-112-127-112c-70.7 0-128 57.3-128 128s57.3 128 128 128c65.3 0 119.1-48.9 127-112l-127 0-16 0 0-32 16 0zM128 288a160 160 0 1 1 320 0 160 160 0 1 1 -320 0z"/></svg>

<svg xmlns="http://www.w3.org/2000/svg" viewBox="0 0 576 512"><!--! Font Awesome Pro 6.5.2 by @fontawesome - https://fontawesome.com License - https://fontawesome.com/license (Commercial License) Copyright 2024 Fonticons, Inc. --><path d="M312 8V56H264V8h48zM120 72v48H72V72h48zm336 0h48v48H456V72zM568 264v48H520V264h48zM8 264H56v48H8V264zM120 456v48H72V456h48zm336 0h48v48H456V456zM288 272H415c-7.9-63.1-61.7-112-127-112c-70.7 0-128 57.3-128 128s57.3 128 128 128c65.3 0 119.1-48.9 127-112H288 272V272h16zM128 288a160 160 0 1 1 320 0 160 160 0 1 1 -320 0z"/></svg>
